X:41
T:Dr. Gilmore's
M:6/8
R:Jig
C:GrisSanderson
Q:400
N:I named this 3-part jig after a man who guided me through 
N:several very difficult years of my life. No - he's not a medic, 
N:but a Doctor of Music. The tune was written originally for 
N:the scordatura tuning A,DAd.
K:Amix
A2a aAa|gag f2d|e2d cAc|dcd e2f|
gBB dBB|GAB dcB|1A2g geg|age deg:|2A2A GEG|AGE DEG||
A2B dcA|Bfa fed|e2A EAF|AGA FED|
E2B dcA|BFA FED|E2A, EA,F|A,GA, FED|
E2B dcA|Bfa fed|e2A EAF|AGA FED|
E2B dcA|BFA FED|E2A, EA,F|A,GA, FED|
|:EBd dBE|EBd e2e|fdA FAD|A,DF A2F|
EBd dBE|EBd e2e|1fdA FAD|A,DF AdA:|2fdA BAF|EBd e2d||
